X: 3382
T: Bennett
R: reel
M: 4/4
K: Dminor
|:D2CD EDC2|D2F2 G2A2|D2CD EFG2|A4 ^c2d2-|
d2AG FEDG|A2AG FED2|FGA2 EDC2|D2F2 F2E2:|
|:F2EF GFE2|F2G2 A2B2|c2Bc dcB2|c2A2 A2G2|
F2EF GFE2|D2F2 G2A2|D2CD EDC2|D2F2 F2E2:|

